X: 1
T: Kiikkuri kaakkuri (D)
O: Trad Finland
R: shottish
Z: John Chambers <jc@trillian.mit.edu>
M: 2/4
L: 1/16
K: D
|: "D"D2FA D2FA | AGFG "A7"E2E2 | "A7"A,2CE A,2CE | GFEF "D"D2D2 :|
w: Kiik-ku-ri kaak-ku-ri kir-*ja-va lin-tu vie-nol-la \"a\"a-nel-l\"a lau-*laa ja vin-kuu.
|: "D"DEFG A2Bc | "G"d2G2 B3B | "A7"BAGF AGFE |1,3 "D"D2F2 A4 :|2,4 "D"D2F2 D4 :|
w: Tu-le, tu-le ar-maa-ni | tans-si-maan ja o-le, o-le o-ma-na-ni ai-ni-aan.
%
W:2.Kiikkuri, kaakkurk kirjava lintu
W:  kuka siell\"a nurkassa itkee ja vinkuu.
W:  Ole sin\"a kultani iloinen,
W:  \"al\"a sin\"a eron t\"ahden kiroile.
